icons/codespaces-24.svg

<svg width="24" height="24" viewBox="0 0 24 24" fill="none" xmlns="http://www.w3.org/2000/svg">
<path fill-rule="evenodd" clip-rule="evenodd" d="M3.5 3.75C3.5 2.7835 4.2835 2 5.25 2H18.75C19.7165 2 20.5 2.7835 20.5 3.75V11.25C20.5 12.2165 19.7165 13 18.75 13H5.25C4.2835 13 3.5 12.2165 3.5 11.25V3.75ZM5.25 3.5C5.11193 3.5 5 3.61193 5 3.75V11.25C5 11.3881 5.11193 11.5 5.25 11.5H18.75C18.8881 11.5 19 11.3881 19 11.25V3.75C19 3.61193 18.8881 3.5 18.75 3.5H5.25Z" fill="#24292E"/>
<path fill-rule="evenodd" clip-rule="evenodd" d="M1.5 15.75C1.5 14.7835 2.2835 14 3.25 14H20.75C21.7165 14 22.5 14.7835 22.5 15.75V19.75C22.5 20.7165 21.7165 21.5 20.75 21.5H3.25C2.2835 21.5 1.5 20.7165 1.5 19.75V15.75ZM3.25 15.5C3.11193 15.5 3 15.6119 3 15.75V19.75C3 19.8881 3.11193 20 3.25 20H20.75C20.8881 20 21 19.8881 21 19.75V15.75C21 15.6119 20.8881 15.5 20.75 15.5H3.25Z" fill="#24292E"/>
<path fill-rule="evenodd" clip-rule="evenodd" d="M10 17.75C10 17.3358 10.3358 17 10.75 17H17.25C17.6642 17 18 17.3358 18 17.75C18 18.1642 17.6642 18.5 17.25 18.5H10.75C10.3358 18.5 10 18.1642 10 17.75Z" fill="#24292E"/>
<path fill-rule="evenodd" clip-rule="evenodd" d="M6 17.75C6 17.3358 6.33579 17 6.75 17H7.25C7.66421 17 8 17.3358 8 17.75C8 18.1642 7.66421 18.5 7.25 18.5H6.75C6.33579 18.5 6 18.1642 6 17.75Z" fill="#24292E"/>
</svg>

<svg xmlns="http://www.w3.org/2000/svg" width="24" height="24" viewBox="0 0 24 24"><path fill-rule="evenodd" d="M3.5 3.75C3.5 2.784 4.284 2 5.25 2h13.5c.966 0 1.75.784 1.75 1.75v7.5A1.75 1.75 0 0118.75 13H5.25a1.75 1.75 0 01-1.75-1.75v-7.5zm1.75-.25a.25.25 0 00-.25.25v7.5c0 .138.112.25.25.25h13.5a.25.25 0 00.25-.25v-7.5a.25.25 0 00-.25-.25H5.25zM1.5 15.75c0-.966.784-1.75 1.75-1.75h17.5c.966 0 1.75.784 1.75 1.75v4a1.75 1.75 0 01-1.75 1.75H3.25a1.75 1.75 0 01-1.75-1.75v-4zm1.75-.25a.25.25 0 00-.25.25v4c0 .138.112.25.25.25h17.5a.25.25 0 00.25-.25v-4a.25.25 0 00-.25-.25H3.25z"/><path fill-rule="evenodd" d="M10 17.75a.75.75 0 01.75-.75h6.5a.75.75 0 010 1.5h-6.5a.75.75 0 01-.75-.75zm-4 0a.75.75 0 01.75-.75h.5a.75.75 0 010 1.5h-.5a.75.75 0 01-.75-.75z"/></svg>
